img/svg/stone_pattern_green.svg

<svg width="586" height="529" viewBox="0 0 586 529" fill="none" xmlns="http://www.w3.org/2000/svg">
<path opacity="0.05" fill-rule="evenodd" clip-rule="evenodd" d="M280.422 34.5983C329.949 41.9216 378.859 38.1288 425.212 57.0485C484.452 81.2284 564.58 96.7475 582.891 158.056C601.268 219.588 530.034 270.029 506.69 329.853C485.346 384.553 496.604 454.36 452.257 492.844C407.083 532.045 340.036 531.062 280.422 526.205C224.596 521.655 173.888 498.23 127.797 466.404C80.6573 433.854 35.368 396.098 14.6517 342.688C-6.77495 287.448 -2.2541 226.669 12.5566 169.3C28.1792 108.785 44.9426 37.154 100.778 9.07592C156.169 -18.7783 219.089 25.5293 280.422 34.5983Z" fill="#2A9D8F"/>
</svg>

<svg xmlns="http://www.w3.org/2000/svg" width="586" height="529" fill="none" xmlns:v="https://vecta.io/nano"><path opacity=".05" fill-rule="evenodd" d="M280.422 34.598c49.527 7.323 98.437 3.53 144.79 22.45 59.24 24.18 139.368 39.699 157.679 101.008 18.377 61.532-52.857 111.973-76.201 171.797-21.344 54.7-10.086 124.507-54.433 162.991-45.174 39.201-112.221 38.218-171.835 33.361-55.826-4.55-106.534-27.975-152.625-59.801-47.14-32.55-92.429-70.306-113.145-123.716-21.427-55.24-16.906-116.019-2.095-173.388C28.179 108.785 44.943 37.154 100.778 9.076c55.391-27.854 118.311 16.453 179.644 25.522z" fill="#2a9d8f"/></svg>
